(G-CODE GENERATED BY FLATCAM v8.994 - www.flatcam.org - Version Date: 2020/11/7)

(Name: Gerber_TopLayer.GTL_iso_combined_cnc)
(Type: G-code from Geometry)
(Units: MM)

(Created on Wednesday, 22 January 2025 at 13:23)

(This preprocessor is the default preprocessor used by FlatCAM.)
(It is made to work with MACH3 compatible motion controllers.)

(TOOL DIAMETER: 2.0 mm)
(Feedrate_XY: 120.0 mm/min)
(Feedrate_Z: 40.0 mm/min)
(Feedrate rapids 1500.0 mm/min)

(Z_Cut: -3.545 mm)
(Z_Move: 2.0 mm)
(Z Start: None mm)
(Z End: 15.0 mm)
(X,Y End: None mm)
(Steps per circle: 16)
(Preprocessor Geometry: default)

(X range:     3.318 ...     6.842  mm)
(Y range:     0.651 ...    98.028  mm)

(Spindle Speed: 10000.0 RPM)
G21
G90
G94

G01 F120.00

M5
G00 Z15.000
G00 X0.000 Y0.000
T1
M6    
(MSG, Change to Tool Dia = 2.000)
M0
G00 Z15.000

M03 S10000.0
G01 F120.00
G00 X3.337 Y96.071
G01 F40.00
G01 Z-3.545
G01 F120.00
G01 X3.395 Y95.779
G01 X3.419 Y95.684
G01 X3.452 Y95.592
G01 X3.494 Y95.503
G01 X3.545 Y95.419
G01 X3.710 Y95.172
G01 X3.768 Y95.093
G01 X3.834 Y95.020
G01 X3.907 Y94.954
G01 X3.953 Y94.920
G01 X3.953 Y3.759
G01 X3.907 Y3.725
G01 X3.834 Y3.659
G01 X3.768 Y3.586
G01 X3.710 Y3.507
G01 X3.545 Y3.260
G01 X3.494 Y3.176
G01 X3.452 Y3.087
G01 X3.419 Y2.995
G01 X3.395 Y2.900
G01 X3.337 Y2.608
G01 X3.323 Y2.511
G01 X3.318 Y2.413
G01 X3.323 Y2.315
G01 X3.337 Y2.218
G01 X3.395 Y1.926
G01 X3.419 Y1.831
G01 X3.452 Y1.739
G01 X3.494 Y1.650
G01 X3.545 Y1.566
G01 X3.710 Y1.319
G01 X3.768 Y1.240
G01 X3.834 Y1.167
G01 X3.907 Y1.101
G01 X3.986 Y1.043
G01 X4.233 Y0.878
G01 X4.317 Y0.827
G01 X4.406 Y0.785
G01 X4.498 Y0.752
G01 X4.593 Y0.728
G01 X4.885 Y0.670
G01 X4.982 Y0.656
G01 X5.080 Y0.651
G01 X5.178 Y0.656
G01 X5.275 Y0.670
G01 X5.567 Y0.728
G01 X5.662 Y0.752
G01 X5.754 Y0.785
G01 X5.843 Y0.827
G01 X5.927 Y0.878
G01 X6.174 Y1.043
G01 X6.253 Y1.101
G01 X6.326 Y1.167
G01 X6.392 Y1.240
G01 X6.450 Y1.319
G01 X6.615 Y1.566
G01 X6.666 Y1.650
G01 X6.708 Y1.739
G01 X6.741 Y1.831
G01 X6.765 Y1.926
G01 X6.823 Y2.218
G01 X6.837 Y2.315
G01 X6.842 Y2.413
G01 X6.837 Y2.511
G01 X6.823 Y2.608
G01 X6.765 Y2.900
G01 X6.741 Y2.995
G01 X6.708 Y3.087
G01 X6.666 Y3.176
G01 X6.615 Y3.260
G01 X6.450 Y3.507
G01 X6.392 Y3.586
G01 X6.326 Y3.659
G01 X6.253 Y3.725
G01 X6.207 Y3.759
G01 X6.207 Y94.920
G01 X6.253 Y94.954
G01 X6.326 Y95.020
G01 X6.392 Y95.093
G01 X6.450 Y95.172
G01 X6.615 Y95.419
G01 X6.666 Y95.503
G01 X6.708 Y95.592
G01 X6.741 Y95.684
G01 X6.765 Y95.779
G01 X6.823 Y96.071
G01 X6.837 Y96.168
G01 X6.842 Y96.266
G01 X6.837 Y96.364
G01 X6.823 Y96.461
G01 X6.765 Y96.753
G01 X6.741 Y96.848
G01 X6.708 Y96.940
G01 X6.666 Y97.029
G01 X6.615 Y97.113
G01 X6.450 Y97.360
G01 X6.392 Y97.439
G01 X6.326 Y97.512
G01 X6.253 Y97.578
G01 X6.174 Y97.636
G01 X5.927 Y97.801
G01 X5.843 Y97.852
G01 X5.754 Y97.894
G01 X5.662 Y97.927
G01 X5.567 Y97.951
G01 X5.275 Y98.009
G01 X5.178 Y98.023
G01 X5.080 Y98.028
G01 X4.982 Y98.023
G01 X4.885 Y98.009
G01 X4.593 Y97.951
G01 X4.498 Y97.927
G01 X4.406 Y97.894
G01 X4.317 Y97.852
G01 X4.233 Y97.801
G01 X3.986 Y97.636
G01 X3.907 Y97.578
G01 X3.834 Y97.512
G01 X3.768 Y97.439
G01 X3.710 Y97.360
G01 X3.545 Y97.113
G01 X3.494 Y97.029
G01 X3.452 Y96.940
G01 X3.419 Y96.848
G01 X3.395 Y96.753
G01 X3.337 Y96.461
G01 X3.323 Y96.364
G01 X3.318 Y96.266
G01 X3.323 Y96.168
G01 X3.337 Y96.071
G00 Z2.000
M05
G00 Z2.000
G00 Z15.00


